X:1
T:Ray's Classic
R:polka
C:Willie Hunter, Shetland
Z:id:hn-polka-46
M:2/4
L:1/8
K:A
A>B AE|FA E>A|FB BA/B/|cB Bc|A>B AE|FA E>A|FB BA/B/|1 cA A2:|2 cA A/B/c/d/||
|:e>f eA|f2 f2|Bf fB|g2 g2|cg gc|a2 g>a|eA c/B/A/B/|1 cA A/B/c/d/:|2 cA A2||

